X:31
T:Minaun View
C:François Champs
N:Composé en Irlande sur Achill Island à l'hôtel "Minaun View"
N:Appris en do (flat set, drop D descendu d'un ton)
Z:Gwen 2019-07-13
R:Reel
M:2/2
Q:1/2=77
K:D
|: G2dG F2dG | FDDE FDFA | G2dG FAde |1 fdAG FDEA :|2 fdAG FDD2
|  f2dA FAfa | g2ec Aceg | f2dA FGAc | dAGA FDD2 |
   fdAF Adfa | g2ec Aceg | f2dA cdec | dAGA FAEA ||

